X:1
T:[ID 1-82]
T:[ID 1-82]
T:Bezeichnung standardisiert: Polonaise Poloniose 5. In dieser Quelle auch als: Polon\"aise In dieser Quelle auch als: Polonaise In dieser Quelle auch als: Menuet In dieser Quelle auch als: Polonoise In dieser Quelle auch als: Tantz
T:Urheber unbekannt Datum in der hier transkribierten schriftlichen Quelle: 1775
C:Urheber unbekannt
C:Datum in der hier transkribierten schriftlichen Quelle: 1775
L:1/8
M:3/4
K:D
V:1 treble 
V:1
 d/e/f/d/ .F.F.F.F | c/d/e/c/ .C.C.C.C | (CA)(Ac)(ce) | ed/c/ d2 d2 :: df/d/ F2 A2 | %5
 G/A/B/G/ ^G/A/F/ B,2 | eg/e/ c2 B2 | A/B/c/A/ G/A/B/G/ C2 | CAAcce | FFFddf | CAAcce | %11
 A/G/F/E/ F2 F2 :| %12

